X:6552
T:Green Groves of Erin
M:C
L:1/8
K:A Dorian
A2BA eABA|G2Bd gedB|A2BA eABA|BEEF GABd|!
A2BA eABA|G2Bd gedB|A2BA eABA|BEEF GABd:|!
eaa2 eaa2|egg2 agfg|eaa^g a3g|egfa gedB|!
eaa2 bgag|edef g3e|dega bgag|egfa gedB:|!


